REACT_GL/src/assets/FloorIcon.svg

<svg fill="none" height="32" viewBox="0 0 34 32" width="34" xmlns="http://www.w3.org/2000/svg" xmlns:xlink="http://www.w3.org/1999/xlink"><clipPath id="a"><path d="m0 0h34v32h-34z"/></clipPath><mask id="b" height="32" maskUnits="userSpaceOnUse" width="34" x="0" y="0"><path clip-rule="evenodd" d="m2.125 1.06667c0-.589106.4757-1.06667 1.0625-1.06667h29.75c.5867 0 1.0625.477564 1.0625 1.06667v29.86663c0 .589-.4758 1.0667-1.0625 1.0667h-29.75c-.5868 0-1.0625-.4777-1.0625-1.0667v-2.1333c0-.589-.4757-1.0667-1.0625-1.0667-.586802 0-1.0625-.4776-1.0625-1.0666v-1.0667c0-.589.475698-1.0667 1.0625-1.0667.5868 0 1.0625-.4776 1.0625-1.0666v-14.93337c0-.5891-.4757-1.06666-1.0625-1.06666-.586802 0-1.0625-.47757-1.0625-1.06667v-1.06667c0-.5891.475698-1.06666 1.0625-1.06666.5868 0 1.0625-.47757 1.0625-1.06667z" fill="#fff" fill-rule="evenodd"/></mask><g clip-path="url(#a)"><g mask="url(#b)"><path d="m32.9375-1.06665h-29.75v2.13333h29.75zm2.125 31.99995v-29.86662h-2.125v29.86662zm-31.875 2.1334h29.75v-2.1334h-29.75zm-2.125-4.2667v2.1333h2.125v-2.1333zm0-2.1333v-1.0667h-2.125v1.0667zm0-18.13335v14.93335h2.125v-14.93335zm-2.125-3.2v1.06667h2.125v-1.06667zm2.125-4.26667v2.13334h2.125v-2.13334zm0 4.26667c1.1736 0 2.125-.95514 2.125-2.13333h-2.125zm0 0v-2.13333c-1.173605 0-2.125.95513-2.125 2.13333zm0 1.06667h-2.125c0 1.17819.951395 2.13333 2.125 2.13333zm2.125 2.13333c0-1.1782-.9514-2.13333-2.125-2.13333v2.13333zm-2.125 17.06665c1.1736 0 2.125-.9551 2.125-2.1333h-2.125zm0 0v-2.1333c-1.173605 0-2.125.9551-2.125 2.1333zm0 1.0667h-2.125c0 1.1782.951395 2.1333 2.125 2.1333zm2.125 2.1333c0-1.1782-.9514-2.1333-2.125-2.1333v2.1333zm0 2.1333h-2.125c0 1.1783.95139 2.1334 2.125 2.1334zm29.75 0v2.1334c1.1736 0 2.125-.9551 2.125-2.1334zm-29.75-31.99995c-1.1736 0-2.125.955124-2.125 2.13333h2.125zm29.75 2.13333h2.125c0-1.178203-.9514-2.13333-2.125-2.13333z" fill="#000"/></g><path clip-rule="evenodd" d="m29.3252 7.67995c0-.5891-.4758-1.06667-1.0625-1.06667h-20.1875v.64h20.1875c.2348 0 .425.19102.425.42667v2.13333c0 .23562-.1902.42662-.425.42662h-20.1875c-.5868 0-1.0625.4776-1.0625 1.0667v2.1333c0 .5891.4757 1.0667 1.0625 1.0667h20.1875c.2348 0 .425.191.425.4267v2.1333c0 .2357-.1902.4267-.425.4267h-20.1875c-.5868 0-1.0625.4775-1.0625 1.0666v2.1334c0 .5891.4757 1.0666 1.0625 1.0666h20.1875c.2348 0 .425.191.425.4267v2.1333c0 .2358-.1902.4267-.425.4267h-20.1875v.64h20.1875c.5867 0 1.0625-.4776 1.0625-1.0667v-2.1333c0-.589-.4758-1.0667-1.0625-1.0667h-20.1875c-.23473 0-.425-.191-.425-.4266v-2.1334c0-.2356.19027-.4266.425-.4266h20.1875c.5867 0 1.0625-.4776 1.0625-1.0667v-2.1333c0-.5891-.4758-1.0667-1.0625-1.0667h-20.1875c-.23473 0-.425-.191-.425-.4267v-2.1333c0-.2356.19027-.4267.425-.4267h20.1875c.5867 0 1.0625-.4775 1.0625-1.06662z" fill="#000" fill-rule="evenodd"/></g></svg>

<svg width="34" height="32" viewBox="0 0 34 32" fill="none" xmlns="http://www.w3.org/2000/svg">
<g clip-path="url(#clip0_102_59)">
<mask id="mask0_102_59" style="mask-type:luminance" maskUnits="userSpaceOnUse" x="0" y="0" width="34" height="32">
<path fill-rule="evenodd" clip-rule="evenodd" d="M2.125 1.06667C2.125 0.477564 2.6007 0 3.1875 0H32.9375C33.5242 0 34 0.477564 34 1.06667V30.9333C34 31.5223 33.5242 32 32.9375 32H3.1875C2.6007 32 2.125 31.5223 2.125 30.9333V28.8C2.125 28.211 1.6493 27.7333 1.0625 27.7333C0.475698 27.7333 0 27.2557 0 26.6667V25.6C0 25.011 0.475698 24.5333 1.0625 24.5333C1.6493 24.5333 2.125 24.0557 2.125 23.4667V8.53333C2.125 7.94423 1.6493 7.46667 1.0625 7.46667C0.475698 7.46667 0 6.9891 0 6.4V5.33333C0 4.74423 0.475698 4.26667 1.0625 4.26667C1.6493 4.26667 2.125 3.7891 2.125 3.2V1.06667Z" fill="white"/>
</mask>
<g mask="url(#mask0_102_59)">
<path d="M32.9375 -1.06665H3.1875V1.06668H32.9375V-1.06665ZM35.0625 30.9333V1.06668H32.9375V30.9333H35.0625ZM3.1875 33.0667H32.9375V30.9333H3.1875V33.0667ZM1.0625 28.8V30.9333H3.1875V28.8H1.0625ZM1.0625 26.6667V25.6H-1.0625V26.6667H1.0625ZM1.0625 8.53335V23.4667H3.1875V8.53335H1.0625ZM-1.0625 5.33335V6.40002H1.0625V5.33335H-1.0625ZM1.0625 1.06668V3.20002H3.1875V1.06668H1.0625ZM1.0625 5.33335C2.2361 5.33335 3.1875 4.37821 3.1875 3.20002H1.0625V5.33335ZM1.0625 5.33335V3.20002C-0.111105 3.20002 -1.0625 4.15515 -1.0625 5.33335H1.0625ZM1.0625 6.40002H-1.0625C-1.0625 7.57821 -0.111105 8.53335 1.0625 8.53335V6.40002ZM3.1875 8.53335C3.1875 7.35515 2.2361 6.40002 1.0625 6.40002V8.53335H3.1875ZM1.0625 25.6C2.2361 25.6 3.1875 24.6449 3.1875 23.4667H1.0625V25.6ZM1.0625 25.6V23.4667C-0.111105 23.4667 -1.0625 24.4218 -1.0625 25.6H1.0625ZM1.0625 26.6667H-1.0625C-1.0625 27.8449 -0.111105 28.8 1.0625 28.8V26.6667ZM3.1875 28.8C3.1875 27.6218 2.2361 26.6667 1.0625 26.6667V28.8H3.1875ZM3.1875 30.9333H1.0625C1.0625 32.1116 2.01389 33.0667 3.1875 33.0667V30.9333ZM32.9375 30.9333V33.0667C34.1111 33.0667 35.0625 32.1116 35.0625 30.9333H32.9375ZM3.1875 -1.06665C2.0139 -1.06665 1.0625 -0.111526 1.0625 1.06668H3.1875V-1.06665ZM32.9375 1.06668H35.0625C35.0625 -0.111523 34.1111 -1.06665 32.9375 -1.06665V1.06668Z" fill="black"/>
</g>
<path fill-rule="evenodd" clip-rule="evenodd" d="M29.3252 7.67995C29.3252 7.09085 28.8494 6.61328 28.2627 6.61328H8.0752V7.25328H28.2627C28.4975 7.25328 28.6877 7.4443 28.6877 7.67995V9.81328C28.6877 10.0489 28.4975 10.2399 28.2627 10.2399H8.0752C7.4884 10.2399 7.0127 10.7175 7.0127 11.3066V13.4399C7.0127 14.029 7.4884 14.5066 8.0752 14.5066H28.2627C28.4975 14.5066 28.6877 14.6976 28.6877 14.9333V17.0666C28.6877 17.3023 28.4975 17.4933 28.2627 17.4933H8.0752C7.4884 17.4933 7.0127 17.9708 7.0127 18.5599V20.6933C7.0127 21.2824 7.4884 21.7599 8.0752 21.7599H28.2627C28.4975 21.7599 28.6877 21.9509 28.6877 22.1866V24.3199C28.6877 24.5557 28.4975 24.7466 28.2627 24.7466H8.0752V25.3866H28.2627C28.8494 25.3866 29.3252 24.909 29.3252 24.3199V22.1866C29.3252 21.5976 28.8494 21.1199 28.2627 21.1199H8.0752C7.84047 21.1199 7.6502 20.9289 7.6502 20.6933V18.5599C7.6502 18.3243 7.84047 18.1333 8.0752 18.1333H28.2627C28.8494 18.1333 29.3252 17.6557 29.3252 17.0666V14.9333C29.3252 14.3442 28.8494 13.8666 28.2627 13.8666H8.0752C7.84047 13.8666 7.6502 13.6756 7.6502 13.4399V11.3066C7.6502 11.071 7.84047 10.8799 8.0752 10.8799H28.2627C28.8494 10.8799 29.3252 10.4024 29.3252 9.81328V7.67995Z" fill="black"/>
</g>
<defs>
<clipPath id="clip0_102_59">
<rect width="34" height="32" fill="white"/>
</clipPath>
</defs>
</svg>
